apps/scalable/bugzilla.svg

<svg xmlns="http://www.w3.org/2000/svg" style="isolation:isolate" width="256" height="256"><defs><filter id="a" width="270.648" height="254.338" x="-7.32" y="2.95" filterUnits="userSpaceOnUse"><feGaussianBlur xmlns="http://www.w3.org/2000/svg" in="SourceGraphic" stdDeviation="4.294"/><feOffset xmlns="http://www.w3.org/2000/svg" dy="4" result="pf_100_offsetBlur"/><feFlood xmlns="http://www.w3.org/2000/svg" flood-opacity=".4"/><feComposite xmlns="http://www.w3.org/2000/svg" in2="pf_100_offsetBlur" operator="in" result="pf_100_dropShadow"/><feBlend xmlns="http://www.w3.org/2000/svg" in="SourceGraphic" in2="pf_100_dropShadow"/></filter></defs><g filter="url(#a)"><linearGradient id="b" x1="1.003" x2=".003" y1=".01" y2=".93" gradientTransform="matrix(244.648 0 0 228.338 5.676 11.947)" gradientUnits="userSpaceOnUse"><stop offset="0%" stop-color="#d446ff"/><stop offset="100%" stop-color="#a0d8ff"/></linearGradient><path fill="url(#b)" d="M165.685 11.947c74.055 0 84.639 10.557 84.639 84.544v59.251c0 73.986-10.584 84.543-84.639 84.543h-75.37c-74.055 0-84.639-10.557-84.639-84.543V96.491c0-73.987 10.584-84.544 84.639-84.544h75.37z"/></g><path fill="#363433" d="M11.78 211.731c.49 1.379.936 2.823 1.506 4.079a39.591 39.591 0 0 0 3.252 5.847 33.324 33.324 0 0 0 4.043 4.905 33.394 33.394 0 0 0 4.91 4.037 39.722 39.722 0 0 0 5.856 3.248c2.118.959 4.407 1.8 6.879 2.535 2.471.735 5.127 1.366 7.978 1.902 2.852.537 5.899.98 9.156 1.344 3.257.364 6.724.647 10.412.863 4.508.265 10.02.277 15.215.365h9.885c.17-9.317-1.483-48.652-42.051-48.652-19.622 0-30.707 9.102-37.041 19.527z"/><path fill="#F6DAAA" stroke="#363433" stroke-linecap="square" stroke-width="2.409" d="M122.609 124.332c.38 22.481-27.511-9.779-23.928-23.316 2.361-2.317 4.739-4.33 8.818-4.593 3.356.314 12.351 15.043 15.11 27.909z" vector-effect="non-scaling-stroke"/><path fill="none" stroke="#6D6E6E" stroke-linecap="square" stroke-width=".927" d="M63.376 103.885c15.576-39.855 8.62-77.701-5.422-81.421" vector-effect="non-scaling-stroke"/><linearGradient id="c" x1=".214" x2=".099" y1=".79" y2=".919" gradientTransform="matrix(112.459 0 0 97.347 37.761 103.164)" gradientUnits="userSpaceOnUse"><stop offset="0%" stop-color="#f6daaa"/><stop offset="100%" stop-color="#e4bc98"/></linearGradient><path fill="url(#c)" stroke="#363433" stroke-linecap="square" stroke-width="2.409" d="M62.419 103.164c-22.276 2.787-26.129 22.203-24.236 29.267 6.264 22.251 9.204 37.369 9.403 62.759 3.797 4.02 14.379 8.561 20.907 2.033-2.002-15.114 10.6-19.441 29.697-18.039 22.716 1.667 52.03-3.711 52.03-25.279-1.79-13.592-17.482-23.671-41.845-37.673" vector-effect="non-scaling-stroke"/><path fill="none" stroke="#6D6E6E" stroke-linecap="square" stroke-width=".927" d="M68.408 100.24c-.831-18.447 41.024-52.435 55.534-35.229" vector-effect="non-scaling-stroke"/><path fill="#F6DAAA" d="M53.031 113.778C76.074 85.4 97.105 81.847 112.67 128.872"/><radialGradient id="d" cx=".127" cy=".18" r="9.79" fx=".127" fy=".18" gradientTransform="matrix(32.169 42.545 -16.099 85.013 38.972 104.223)" gradientUnits="userSpaceOnUse"><stop offset="0%" stop-color="#e4bc98"/><stop offset="100%" stop-opacity="0" stop-color="#f6daaa"/></radialGradient><path fill="url(#d)" d="M63.534 104.223l-.58.056c-1.027.879-1.085.548-.984.116-.197.026-.386.085-.579.116-.199.227-.43.47-.753.868l-.579.695-.58.232.58-.695c.463-.571.631-.825.695-.985-.156.027-.31.027-.464.056-.576.387-1.062.802-.405.116-9.151 1.834-14.55 6.689-17.608 11.99-3.332 5.774-3.762 12.206-2.954 15.291.004.011-.004.041 0 .055 6.207 22.06 9.193 37.338 9.441 62.381 1.734 1.723 4.98 3.722 8.514 4.459 2.332.487 4.676.448 6.835-.405 1.288-1.316 2.187-3.269 3.128-5.444.351-5.63 3.09-9.755 7.645-12.164.022-.011.036-.048.058-.056l-11.41-76.682z"/><radialGradient id="e" cx=".511" cy=".484" r="5.297" fx=".511" fy=".484" gradientTransform="matrix(30.234 0 0 29.945 117.11 128.376)" gradientUnits="userSpaceOnUse"><stop offset="0%" stop-color="#fff"/><stop offset="100%" stop-opacity="0" stop-color="#fff"/></radialGradient><path fill="url(#e)" d="M127.13 128.376c-5.867 2.208-10.02 7.84-10.02 14.48 0 8.548 6.859 15.465 15.407 15.465 7.012 0 12.927-4.67 14.827-11.063-2.063-3.943-5.427-7.714-10.02-11.526-2.919-2.423-6.356-4.847-10.194-7.356z"/><path fill="#363433" d="M63.997 174.017c-.929 0-2.001 1.702-.347 1.564 8.345-.695 16.394-.522 23.341 4.344l.638-.115.868-1.101.188-.293c-7.604-4.844-15.993-5.275-24.688-4.399z"/><linearGradient id="f" x1=".399" x2=".233" y1=".231" y2=".213"><stop offset="0%" stop-color="#363433"/><stop offset="100%" stop-opacity="0" stop-color="#363433"/></linearGradient><path fill="#FFF" stroke="url(#f)" stroke-linecap="square" stroke-width="1.39" d="M73.962 139.374c-1.686-1.686-11.309-31.651 5.206-36.357 10.581-3.016 23.254 20.24 23.254 29.936 0 9.695-19.788 14.34-28.46 6.421z" vector-effect="non-scaling-stroke"/><path fill="#343231" d="M89.873 116.854c-.013 4.105-1.696 7.834-4.317 9.565-2.621 1.731-5.706 1.152-7.916-1.485-2.209-2.637-3.143-6.857-2.395-10.824.013-4.106 1.696-7.834 4.317-9.566 2.621-1.731 5.707-1.152 7.916 1.485 2.209 2.638 3.143 6.857 2.395 10.825z"/><path fill="#FFF" d="M83.958 112.917c.061 1.664-.537 3.206-1.472 3.794-.935.588-1.984.081-2.58-1.246-.596-1.328-.597-3.16-.003-4.507-.062-1.664.537-3.206 1.472-3.794.934-.588 1.983-.081 2.579 1.246.596 1.328.598 3.16.004 4.507zM81.089 121.518c.04.449.469.825 1.052.923.583.098 1.182-.104 1.471-.497.288-.394.197-.883-.224-1.204-.04-.448-.468-.824-1.052-.922-.583-.099-1.182.104-1.471.497-.288.393-.197.883.224 1.203z"/><path fill="#413F3E" d="M60.119 22.044a2.9 2.9 0 1 1-5.801 0 2.9 2.9 0 0 1 5.801 0zM126.875 65.116a2.902 2.902 0 0 1-4.351 2.514 2.9 2.9 0 0 1-1.449-2.514 2.9 2.9 0 1 1 5.8 0z"/><path fill="#FFF" d="M46.853 193.189c-21.456-.582-35.298 21.102-33.751 21.881 2.571.567 5.322-5.534 16.112-14.628 4.892-4.123 17.835-5.516 17.645-6.963-.003-.1 0-.193-.006-.29z"/><path fill="#E67E71" d="M19.901 225.735c.243.259.43.576.68.827a33.394 33.394 0 0 0 4.91 4.037 39.722 39.722 0 0 0 5.856 3.248c2.118.959 4.407 1.8 6.879 2.535 2.471.735 5.127 1.366 7.978 1.902 2.852.537 5.899.98 9.156 1.344 3.257.364 6.724.647 10.412.863 4.508.265 10.02.277 15.215.365h7.451c-.006-12.089-.704-28.094-18.185-40.601-4.14 3.643-9.49 4.235-13.959 3.303-3.609-.754-6.82-2.329-9.268-4.229-15.369 6.746-23.391 16.2-27.125 26.406z"/><path fill="#363433" d="M112.679 128.897c-3.014-11.963-7.284-20.796-11.903-26.759-4.618-5.963-9.675-9.258-15.001-10.02-5.326-.762-10.815.965-16.391 4.634-5.577 3.668-12.621 11.654-16.363 17.028 6.187-6.15 12.013-11.955 17.347-15.465 5.334-3.509 10.418-5.024 15.175-4.344 4.758.681 9.305 3.558 13.728 9.268 4.422 5.709 9.248 14.08 13.408 25.658z"/><g opacity=".4"><linearGradient id="g" x1=".517" x2=".517" y2="1"><stop offset="0%" stop-color="#fff"/><stop offset="12.5%" stop-opacity=".098" stop-color="#fff"/><stop offset="92.5%" stop-opacity=".098"/><stop offset="100%" stop-opacity=".498"/></linearGradient><path fill="none" stroke="url(#g)" stroke-linecap="round" stroke-linejoin="round" stroke-width="4.077" d="M165.685 11.947c74.055 0 84.639 10.557 84.639 84.544v59.251c0 73.986-10.584 84.543-84.639 84.543h-75.37c-74.055 0-84.639-10.557-84.639-84.543V96.491c0-73.987 10.584-84.544 84.639-84.544h75.37z" vector-effect="non-scaling-stroke"/></g></svg>

<svg xmlns="http://www.w3.org/2000/svg" style="isolation:isolate" width="256" height="256" viewBox="0 0 256 256">
 <defs>
  <filter id="hCzWkXeMppMXeuDm8dXJQcfuwwf1l6Kz" width="270.648" height="254.338" x="-7.32" y="2.95" filterUnits="userSpaceOnUse">
   <feGaussianBlur xmlns="http://www.w3.org/2000/svg" in="SourceGraphic" stdDeviation="4.294"/>
   <feOffset xmlns="http://www.w3.org/2000/svg" dx="0" dy="4" result="pf_100_offsetBlur"/>
   <feFlood xmlns="http://www.w3.org/2000/svg" flood-opacity=".4"/>
   <feComposite xmlns="http://www.w3.org/2000/svg" in2="pf_100_offsetBlur" operator="in" result="pf_100_dropShadow"/>
   <feBlend xmlns="http://www.w3.org/2000/svg" in="SourceGraphic" in2="pf_100_dropShadow" mode="normal"/>
  </filter>
 </defs>
 <g filter="url(#hCzWkXeMppMXeuDm8dXJQcfuwwf1l6Kz)">
  <linearGradient id="_lgradient_4" x1="1.003" x2=".003" y1=".01" y2=".93" gradientTransform="matrix(244.648,0,0,228.338,5.676,11.947)" gradientUnits="userSpaceOnUse">
   <stop offset="0%" style="stop-color:rgb(212,70,255)"/>
   <stop offset="100%" style="stop-color:rgb(160,216,255)"/>
  </linearGradient>
  <path fill="url(#_lgradient_4)" d="M 165.685 11.947 C 239.74 11.947 250.324 22.504 250.324 96.491 L 250.324 155.742 C 250.324 229.728 239.74 240.285 165.685 240.285 L 90.315 240.285 C 16.26 240.285 5.676 229.728 5.676 155.742 L 5.676 96.491 C 5.676 22.504 16.26 11.947 90.315 11.947 L 165.685 11.947 Z"/>
 </g>
 <g>
  <path fill="#363433" d="M 11.78 211.731 C 12.27 213.11 12.716 214.554 13.286 215.81 C 14.247 217.925 15.327 219.869 16.538 221.657 C 17.75 223.445 19.093 225.076 20.581 226.562 C 22.069 228.047 23.701 229.389 25.491 230.599 C 27.281 231.808 29.229 232.887 31.347 233.847 C 33.465 234.806 35.754 235.647 38.226 236.382 C 40.697 237.117 43.353 237.748 46.204 238.284 C 49.056 238.821 52.103 239.264 55.36 239.628 C 58.617 239.992 62.084 240.275 65.772 240.491 C 70.28 240.756 75.792 240.768 80.987 240.856 L 90.872 240.856 C 91.042 231.539 89.389 192.204 48.821 192.204 C 29.199 192.204 18.114 201.306 11.78 211.731 Z"/>
  <path fill="#F6DAAA" stroke="#363433" stroke-linecap="square" stroke-width="2.409" d="M 122.609 124.332 C 122.989 146.813 95.098 114.553 98.681 101.016 C 101.042 98.699 103.42 96.686 107.499 96.423 C 110.855 96.737 119.85 111.466 122.609 124.332 Z" vector-effect="non-scaling-stroke"/>
  <path fill="none" stroke="#6D6E6E" stroke-linecap="square" stroke-width=".927" d="M 63.376 103.885 C 78.952 64.03 71.996 26.184 57.954 22.464" vector-effect="non-scaling-stroke"/>
  <linearGradient id="_lgradient_5" x1=".214" x2=".099" y1=".79" y2=".919" gradientTransform="matrix(112.459,0,0,97.347,37.761,103.164)" gradientUnits="userSpaceOnUse">
   <stop offset="0%" style="stop-color:rgb(246,218,170)"/>
   <stop offset="100%" style="stop-color:rgb(228,188,152)"/>
  </linearGradient>
  <path fill="url(#_lgradient_5)" stroke="#363433" stroke-linecap="square" stroke-width="2.409" d="M 62.419 103.164 C 40.143 105.951 36.29 125.367 38.183 132.431 C 44.447 154.682 47.387 169.8 47.586 195.19 C 51.383 199.21 61.965 203.751 68.493 197.223 C 66.491 182.109 79.093 177.782 98.19 179.184 C 120.906 180.851 150.22 175.473 150.22 153.905 C 148.43 140.313 132.738 130.234 108.375 116.232" vector-effect="non-scaling-stroke"/>
  <path fill="none" stroke="#6D6E6E" stroke-linecap="square" stroke-width=".927" d="M 68.408 100.24 C 67.577 81.793 109.432 47.805 123.942 65.011" vector-effect="non-scaling-stroke"/>
  <path fill="#F6DAAA" d="M 53.031 113.778 C 76.074 85.4 97.105 81.847 112.67 128.872"/>
  <radialGradient id="_rgradient_0" cx=".127" cy=".18" r="9.79" fx=".127" fy=".18" gradientTransform="matrix(32.169,42.545,-16.099,85.013,38.972,104.223)" gradientUnits="userSpaceOnUse">
   <stop offset="0%" style="stop-color:rgb(228,188,152)"/>
   <stop offset="100%" stop-opacity="0" style="stop-color:rgb(246,218,170)"/>
  </radialGradient>
  <path fill="url(#_rgradient_0)" d="M 63.534 104.223 L 62.954 104.279 C 61.927 105.158 61.869 104.827 61.97 104.395 C 61.773 104.421 61.584 104.48 61.391 104.511 C 61.192 104.738 60.961 104.981 60.638 105.379 L 60.059 106.074 L 59.479 106.306 L 60.059 105.611 C 60.522 105.04 60.69 104.786 60.754 104.626 C 60.598 104.653 60.444 104.653 60.29 104.682 C 59.714 105.069 59.228 105.484 59.885 104.798 C 50.734 106.632 45.335 111.487 42.277 116.788 C 38.945 122.562 38.515 128.994 39.323 132.079 C 39.327 132.09 39.319 132.12 39.323 132.134 C 45.53 154.194 48.516 169.472 48.764 194.515 C 50.498 196.238 53.744 198.237 57.278 198.974 C 59.61 199.461 61.954 199.422 64.113 198.569 C 65.401 197.253 66.3 195.3 67.241 193.125 C 67.592 187.495 70.331 183.37 74.886 180.961 C 74.908 180.95 74.922 180.913 74.944 180.905 L 63.534 104.223 Z"/>
  <radialGradient id="_rgradient_1" cx=".511" cy=".484" r="5.297" fx=".511" fy=".484" gradientTransform="matrix(30.234,0,0,29.945,117.11,128.376)" gradientUnits="userSpaceOnUse">
   <stop offset="0%" style="stop-color:rgb(255,255,255)"/>
   <stop offset="100%" stop-opacity="0" style="stop-color:rgb(255,255,255)"/>
  </radialGradient>
  <path fill="url(#_rgradient_1)" d="M 127.13 128.376 C 121.263 130.584 117.11 136.216 117.11 142.856 C 117.11 151.404 123.969 158.321 132.517 158.321 C 139.529 158.321 145.444 153.651 147.344 147.258 C 145.281 143.315 141.917 139.544 137.324 135.732 C 134.405 133.309 130.968 130.885 127.13 128.376 L 127.13 128.376 Z"/>
  <path fill="#363433" d="M 63.997 174.017 C 63.068 174.017 61.996 175.719 63.65 175.581 C 71.995 174.886 80.044 175.059 86.991 179.925 L 87.629 179.81 L 88.497 178.709 L 88.685 178.416 C 81.081 173.572 72.692 173.141 63.997 174.017 L 63.997 174.017 Z"/>
  <linearGradient id="_lgradient_6" x1=".399" x2=".233" y1=".231" y2=".213">
   <stop offset="0%" style="stop-color:rgb(54,52,51)"/>
   <stop offset="100%" stop-opacity="0" style="stop-color:rgb(54,52,51)"/>
  </linearGradient>
  <path fill="#FFFFFF" stroke="url(#_lgradient_6)" stroke-linecap="square" stroke-width="1.39" d="M 73.962 139.374 C 72.276 137.688 62.653 107.723 79.168 103.017 C 89.749 100.001 102.422 123.257 102.422 132.953 C 102.422 142.648 82.634 147.293 73.962 139.374 L 73.962 139.374 Z" vector-effect="non-scaling-stroke"/>
  <path fill="#343231" d="M 89.873 116.854 C 89.86 120.959 88.177 124.688 85.556 126.419 C 82.935 128.15 79.85 127.571 77.64 124.934 C 75.431 122.297 74.497 118.077 75.245 114.11 C 75.258 110.004 76.941 106.276 79.562 104.544 C 82.183 102.813 85.269 103.392 87.478 106.029 C 89.687 108.667 90.621 112.886 89.873 116.854 L 89.873 116.854 Z"/>
  <path fill="#FFFFFF" d="M 83.958 112.917 C 84.019 114.581 83.421 116.123 82.486 116.711 C 81.551 117.299 80.502 116.792 79.906 115.465 C 79.31 114.137 79.309 112.305 79.903 110.958 C 79.841 109.294 80.44 107.752 81.375 107.164 C 82.309 106.576 83.358 107.083 83.954 108.41 C 84.55 109.738 84.552 111.57 83.958 112.917 Z"/>
  <path fill="#FFFFFF" d="M 81.089 121.518 C 81.129 121.967 81.558 122.343 82.141 122.441 C 82.724 122.539 83.323 122.337 83.612 121.944 C 83.9 121.55 83.809 121.061 83.388 120.74 C 83.348 120.292 82.92 119.916 82.336 119.818 C 81.753 119.719 81.154 119.922 80.865 120.315 C 80.577 120.708 80.668 121.198 81.089 121.518 L 81.089 121.518 Z"/>
  <path fill="#413F3E" d="M 60.119 22.044 C 60.119 23.08 59.567 24.037 58.669 24.556 C 57.772 25.074 56.666 25.074 55.769 24.556 C 54.872 24.037 54.319 23.08 54.319 22.044 C 54.319 21.008 54.872 20.05 55.769 19.532 C 56.666 19.014 57.772 19.014 58.669 19.532 C 59.567 20.05 60.119 21.008 60.119 22.044 L 60.119 22.044 Z"/>
  <path fill="#413F3E" d="M 126.875 65.116 C 126.876 66.153 126.323 67.111 125.426 67.63 C 124.528 68.149 123.422 68.149 122.524 67.63 C 121.626 67.111 121.074 66.153 121.075 65.116 C 121.074 64.079 121.626 63.121 122.524 62.602 C 123.422 62.083 124.528 62.083 125.426 62.602 C 126.323 63.121 126.876 64.079 126.875 65.116 L 126.875 65.116 Z"/>
  <path fill="#FFFFFF" d="M 46.853 193.189 C 25.397 192.607 11.555 214.291 13.102 215.07 C 15.673 215.637 18.424 209.536 29.214 200.442 C 34.106 196.319 47.049 194.926 46.859 193.479 C 46.856 193.379 46.859 193.286 46.853 193.189 L 46.853 193.189 Z"/>
  <path fill="#E67E71" d="M 19.901 225.735 C 20.144 225.994 20.331 226.311 20.581 226.562 C 22.069 228.047 23.701 229.389 25.491 230.599 C 27.281 231.808 29.229 232.887 31.347 233.847 C 33.465 234.806 35.754 235.647 38.226 236.382 C 40.697 237.117 43.353 237.748 46.204 238.284 C 49.056 238.821 52.103 239.264 55.36 239.628 C 58.617 239.992 62.084 240.275 65.772 240.491 C 70.28 240.756 75.792 240.768 80.987 240.856 L 88.438 240.856 C 88.432 228.767 87.734 212.762 70.253 200.255 C 66.113 203.898 60.763 204.49 56.294 203.558 C 52.685 202.804 49.474 201.229 47.026 199.329 C 31.657 206.075 23.635 215.529 19.901 225.735 Z"/>
  <path fill="#363433" d="M 112.679 128.897 C 109.665 116.934 105.395 108.101 100.776 102.138 C 96.158 96.175 91.101 92.88 85.775 92.118 C 80.449 91.356 74.96 93.083 69.384 96.752 C 63.807 100.42 56.763 108.406 53.021 113.78 C 59.208 107.63 65.034 101.825 70.368 98.315 C 75.702 94.806 80.786 93.291 85.543 93.971 C 90.301 94.652 94.848 97.529 99.271 103.239 C 103.693 108.948 108.519 117.319 112.679 128.897 L 112.679 128.897 Z"/>
 </g>
 <g opacity=".4">
  <linearGradient id="_lgradient_7" x1=".517" x2=".517" y1="0" y2="1">
   <stop offset="0%" style="stop-color:rgb(255,255,255)"/>
   <stop offset="12.5%" stop-opacity=".098" style="stop-color:rgb(255,255,255)"/>
   <stop offset="92.5%" stop-opacity=".098" style="stop-color:rgb(0,0,0)"/>
   <stop offset="100%" stop-opacity=".498" style="stop-color:rgb(0,0,0)"/>
  </linearGradient>
  <path fill="none" stroke="url(#_lgradient_7)" stroke-linecap="round" stroke-linejoin="round" stroke-width="4.077" d="M 165.685 11.947 C 239.74 11.947 250.324 22.504 250.324 96.491 L 250.324 155.742 C 250.324 229.728 239.74 240.285 165.685 240.285 L 90.315 240.285 C 16.26 240.285 5.676 229.728 5.676 155.742 L 5.676 96.491 C 5.676 22.504 16.26 11.947 90.315 11.947 L 165.685 11.947 Z" vector-effect="non-scaling-stroke"/>
 </g>
</svg>
